packages/core/src/svgs/tokens/branded/LYRA.svg

<svg width="24" height="24" viewBox="0 0 24 24" fill="none" xmlns="http://www.w3.org/2000/svg">
<path d="M16.3156 9.75412L12.8337 13.2485H4.01341C3.37581 13.2485 3.05699 12.5171 3.48832 12.0796L13.3462 2.15907C13.4083 2.0976 13.4843 2.05182 13.5676 2.02552C13.6509 1.99921 13.7393 1.99314 13.8255 2.0078C13.9117 2.02247 13.9931 2.05745 14.0629 2.10984C14.133 2.16223 14.1894 2.23054 14.2276 2.3091L16.6843 7.77879C16.8313 8.10642 16.8748 8.47114 16.809 8.82416C16.7431 9.17716 16.5708 9.50163 16.3156 9.75412Z" fill="url(#paint0_linear_364_10119)"/>
<path d="M2.00024 13.8736C2.20027 14.1425 2.91915 14.4986 4.16312 14.4986H17.8531C18.6468 14.4986 19.3657 14.9613 19.6783 15.6864L21.9474 21.0499C21.9906 21.1545 22.0074 21.2681 21.9962 21.3808C21.9849 21.4934 21.946 21.6015 21.8828 21.6956C21.8198 21.7895 21.7345 21.8665 21.6346 21.9196C21.5345 21.9727 21.4231 22.0003 21.3098 22H7.02611C6.58957 22.0012 6.16211 21.8753 5.79585 21.6377C5.42957 21.4002 5.1403 21.0612 4.96326 20.6623L2.00024 13.8736Z" fill="url(#paint1_linear_364_10119)"/>
<defs>
<linearGradient id="paint0_linear_364_10119" x1="11.9998" y1="1.99384" x2="11.9998" y2="22" gradientUnits="userSpaceOnUse">
<stop stop-color="#5ADCD3"/>
<stop offset="1" stop-color="#37C4B1"/>
</linearGradient>
<linearGradient id="paint1_linear_364_10119" x1="19.5971" y1="15.3615" x2="4.51943" y2="20.875" gradientUnits="userSpaceOnUse">
<stop stop-color="#47D1C1"/>
<stop offset="1" stop-color="#21BFA1"/>
</linearGradient>
</defs>
</svg>

<svg xmlns="http://www.w3.org/2000/svg" width="24" height="24" fill="none" viewBox="0 0 24 24">
    <path fill="url(#LYRA__a)" d="m16.316 9.754-3.482 3.495h-8.82c-.638 0-.957-.732-.526-1.17l9.858-9.92a.55.55 0 0 1 .882.15l2.456 5.47a1.76 1.76 0 0 1-.368 1.975"/>
    <path fill="url(#LYRA__b)" d="M2 13.874c.2.268.92.625 2.163.625h13.69a1.98 1.98 0 0 1 1.825 1.187l2.27 5.364a.688.688 0 0 1-.638.95H7.026a2.25 2.25 0 0 1-2.063-1.338z"/>
    <defs>
        <linearGradient id="LYRA__a" x1="12" x2="12" y1="1.994" y2="22" gradientUnits="userSpaceOnUse">
            <stop stop-color="#5ADCD3"/>
            <stop offset="1" stop-color="#37C4B1"/>
        </linearGradient>
        <linearGradient id="LYRA__b" x1="19.597" x2="4.519" y1="15.361" y2="20.875" gradientUnits="userSpaceOnUse">
            <stop stop-color="#47D1C1"/>
            <stop offset="1" stop-color="#21BFA1"/>
        </linearGradient>
    </defs>
</svg>
